app/assets/img/ic-education.svg

<svg height="250" viewBox="0 0 250 250" width="250" xmlns="http://www.w3.org/2000/svg"><g fill="none" fill-rule="evenodd"><path d="m0 0h250v250h-250z"/><path d="m52.0833333 137.291667v41.666666l72.9166667 39.791667 72.916667-39.791667v-41.666666l-72.916667 39.791666zm72.9166667-106.041667-114.5833333 62.5 114.5833333 62.5 93.75-51.145833v71.979166h20.833333v-83.333333z" fill="#000" fill-rule="nonzero"/></g></svg>

<svg xmlns="http://www.w3.org/2000/svg" width="250" height="250" viewBox="0 0 250 250">
  <g fill="none" fill-rule="evenodd">
    <polygon points="0 0 250 0 250 250 0 250"/>
    <path fill="#000000" fill-rule="nonzero" d="M52.0833333,137.291667 L52.0833333,178.958333 L125,218.75 L197.916667,178.958333 L197.916667,137.291667 L125,177.083333 L52.0833333,137.291667 Z M125,31.25 L10.4166667,93.75 L125,156.25 L218.75,105.104167 L218.75,177.083333 L239.583333,177.083333 L239.583333,93.75 L125,31.25 Z"/>
  </g>
</svg>
